app/src/components/base/icon/24/BaseFAQ.svg

<template>
  <svg
    width="24px"
    height="24px"
    viewBox="0 0 24 24"
    version="1.1"
    xmlns="http://www.w3.org/2000/svg"
    xmlns:xlink="http://www.w3.org/1999/xlink"
  >
    <image
      x="0"
      y="1"
      width="19"
      height="19"
      xlink:href="data:image/png;base64,iVBORw0KGgoAAAANSUhEUgAAABMAAAATCAYAAAByUDbMAAAAAXNSR0IArs4c6QAAAS1JREFUOBGtkz1rwlAUQH0OltDVIujiYEelW6GDg+DQQVwC+gM6ubv6U7oUpy6lP8ChSwfbSUppoYOIUytUgkUSmnhuiRK/0nx44eS+l/vueUl4UYk94TjOBaUalCAN3/AO99BTSv2S/QPJGTyAX7xQrPqaWKDDj5/FU7MZt3cKKZTB9CwOOrxaE9KlwTho98a6OfO8CJOutUXOuuOw6YiGzqoJc39jt7DTKQ0pxeUYqwFqZY82OJfXzBxAJNvnRBb3iUQkYYlsBLbMYsYwyW9hInmMKfqi/215NG5iyrryUEvZNTL5iaPGkzT+ybBajJswk5sR4nKrhzNXgQmEDYMGbZcwT+H2H9szdcEb+t4zxqoCO9WhCCfwCR9wx2cZkBOsOSU1QD7RKxwmEKcXeGLBN5s5jTcAAAAASUVORK5CYII="
    ></image>
    <path
      d="M19.9214667,18.1115639 L18.5484506,14.1157465 C19.2088452,12.7808256 19.5581051,11.292897 19.5604489,9.79571056 C19.5644333,7.21750931 18.5668883,4.77965952 16.7514867,2.93137962 C14.9358118,1.08274815 12.5163051,0.0422020341 9.93875053,0.00130362639 C8.58831274,-0.0203760453 7.27791425,0.228451898 6.04196933,0.740053088 C4.84989187,1.23352929 3.78086201,1.94833346 2.86460651,2.86458279 C1.94831195,3.78083212 1.23350297,4.84985478 0.740062511,6.04192423 C0.228457878,7.27786083 -0.0200983014,8.58891456 0.00126901436,9.9386792 C0.0420895719,12.5162164 1.08268175,14.9357068 2.93132566,16.7514086 C4.77602423,18.5632432 7.20760133,19.5604691 9.78027302,19.56043 C9.78531211,19.56043 9.79062464,19.56043 9.79566374,19.56043 C11.2928602,19.5580863 12.7807988,19.2088287 14.1157678,18.5484386 L18.1116121,19.9214454 C18.2652849,19.9742578 18.4227858,20 18.578568,20 C18.9486484,20 19.3086505,19.8546095 19.5816209,19.5815628 C19.9694748,19.1937115 20.099749,18.6304307 19.9214667,18.1115639 Z M18.7431393,18.7431259 C18.7038031,18.7824618 18.6195839,18.8421493 18.4968878,18.8000399 L14.2627218,17.3451191 C14.2001042,17.3236348 14.1349867,17.3129316 14.0700644,17.3129316 C13.9743607,17.3129316 13.8790867,17.3360957 13.7927971,17.3817597 C12.5690788,18.0291421 11.186258,18.3725012 9.79378873,18.3746106 C5.12383882,18.3821496 1.26084689,14.5890664 1.18686207,9.91989015 C1.14963528,7.57071218 2.0432344,5.36286222 3.70304904,3.70305874 C5.36286369,2.04329433 7.57006444,1.14985748 9.9199223,1.18700589 C14.5890909,1.26102927 18.3818871,5.12208115 18.3746215,9.79387462 C18.372434,11.1863736 18.0291116,12.5691851 17.381764,13.792817 C17.3051229,13.9376607 17.2918806,14.1077777 17.3451231,14.2627386 L18.8000537,18.4968761 C18.8422024,18.6194932 18.7825146,18.7038291 18.7431393,18.7431259 Z"
      fill="#344B97"
      fill-rule="nonzero"
    ></path>
    <path
      d="M9.62962963,14.0740741 C9.24250358,14.0740741 8.87161546,14.4147719 8.88951132,14.8148148 C8.90745595,15.2161267 9.21470891,15.5555556 9.62962963,15.5555556 C10.0167557,15.5555556 10.3876438,15.2148578 10.3697479,14.8148148 C10.3518033,14.4134542 10.0445503,14.0740741 9.62962963,14.0740741 Z"
      fill="#344B97"
      fill-rule="nonzero"
    ></path>
    <path
      d="M9.62962963,5.18518519 C7.99585071,5.18518519 6.66666667,6.48148061 6.66666667,8.07483417 C6.66666667,8.3955789 6.9333196,8.65563391 7.26220202,8.65563391 C7.59108443,8.65563391 7.85773736,8.3955789 7.85773736,8.07483417 C7.85773736,7.12201341 8.65263462,6.34678466 9.62962963,6.34678466 C10.6066246,6.34678466 11.4015219,7.12201341 11.4015219,8.07483417 C11.4015219,9.02765494 10.6066246,9.80288368 9.62962963,9.80288368 C9.30074721,9.80288368 9.03409428,10.0629387 9.03409428,10.3836834 L9.03409428,12.7525336 C9.03409428,13.0732783 9.30074721,13.3333333 9.62962963,13.3333333 C9.95851204,13.3333333 10.225165,13.0733166 10.225165,12.7524953 L10.225165,10.9058215 C11.5744775,10.6362383 12.5925926,9.46931988 12.5925926,8.07483417 C12.5925926,6.48148061 11.2634085,5.18518519 9.62962963,5.18518519 Z"
      fill="#344B97"
      fill-rule="nonzero"
    ></path>
  </svg>
</template>
<script>
export default {}
</script>

<svg width="24" height="24" xmlns="http://www.w3.org/2000/svg" xmlns:xlink="http://www.w3.org/1999/xlink"><image y="1" width="19" height="19" xlink:href="data:image/png;base64,iVBORw0KGgoAAAANSUhEUgAAABMAAAATCAYAAAByUDbMAAAAAXNSR0IArs4c6QAAAS1JREFUOBGtkz1rwlAUQH0OltDVIujiYEelW6GDg+DQQVwC+gM6ubv6U7oUpy6lP8ChSwfbSUppoYOIUytUgkUSmnhuiRK/0nx44eS+l/vueUl4UYk94TjOBaUalCAN3/AO99BTSv2S/QPJGTyAX7xQrPqaWKDDj5/FU7MZt3cKKZTB9CwOOrxaE9KlwTho98a6OfO8CJOutUXOuuOw6YiGzqoJc39jt7DTKQ0pxeUYqwFqZY82OJfXzBxAJNvnRBb3iUQkYYlsBLbMYsYwyW9hInmMKfqi/215NG5iyrryUEvZNTL5iaPGkzT+ybBajJswk5sR4nKrhzNXgQmEDYMGbZcwT+H2H9szdcEb+t4zxqoCO9WhCCfwCR9wx2cZkBOsOSU1QD7RKxwmEKcXeGLBN5s5jTcAAAAASUVORK5CYII="/><path d="M19.921 18.112l-1.373-3.996a9.81 9.81 0 001.012-4.32 9.721 9.721 0 00-2.809-6.865A9.713 9.713 0 009.94.001a9.742 9.742 0 00-7.074 2.863A9.741 9.741 0 000 9.94a9.713 9.713 0 002.93 6.812 9.72 9.72 0 006.85 2.81h.015a9.81 9.81 0 004.32-1.013l3.996 1.373a1.415 1.415 0 001.47-.34c.387-.387.518-.95.34-1.47zm-1.178.631a.23.23 0 01-.246.057l-4.234-1.455a.594.594 0 00-.47.037 8.61 8.61 0 01-4 .993c-4.67.007-8.532-3.786-8.606-8.455a8.529 8.529 0 012.516-6.217A8.528 8.528 0 019.92 1.187c4.67.074 8.462 3.935 8.455 8.607a8.611 8.611 0 01-.993 3.999.593.593 0 00-.037.47l1.455 4.234a.229.229 0 01-.057.246z" fill="#344B97"/><path d="M9.63 14.074c-.387 0-.758.34-.74.74.017.402.325.742.74.742.387 0 .758-.341.74-.741-.018-.402-.325-.74-.74-.74zM9.63 5.185c-1.634 0-2.963 1.296-2.963 2.89 0 .32.266.58.595.58.33 0 .596-.26.596-.58 0-.953.795-1.728 1.772-1.728s1.772.775 1.772 1.728-.795 1.728-1.772 1.728a.588.588 0 00-.596.58v2.37c0 .32.267.58.596.58.329 0 .595-.26.595-.58v-1.847c1.35-.27 2.368-1.437 2.368-2.831 0-1.594-1.33-2.89-2.963-2.89z" fill="#344B97"/></svg>
